X: 33256
T: Pulse Of My Heart
R: waltz
M: 3/4
K: Dminor
A2|d3 f ed|d2 A2 de|f2 f2 f2|e2 e2 e2|d3 f ed|c2 A2 d2|c2 A2 A2|A4 A2|
d3 f ed|d2 A2 de|f2 f2 f2|e2 e2 e2|dc BA GF|G3 B AG|F2 D2 D2|D4 DE||
F2 FGFG|c2 A2 A2|B2 G2 G2|c2 A2 A2|F2 FA ce|f3 e d2|c2 AGFG|F2 D2 DE|
F2 FGFG|c2 A2 A2|B2 G2 G2|A2 f2 f2|dc BA GF|GF GB AG|F2 D2 D2|D4||

